X: 35166
T: Ronnie Power's
R: jig
M: 6/8
K: Eminor
|:BEE GAG|FGA FED|EFG ABc|dBG FGA|
BEE GAG|FGA FED|EFG EFG|1 AGF E2A:|2 AGF E3||
|:~e3 fed|BAB dB/c/d|gfe dBG|ABc dBd|
~e3 fed|BAB dBG|ABc dBG|1 AGF E3:|2 AGF E2A||

